src/assets/images/shuffle.svg

<?xml version="1.0" encoding="UTF-8"?>
<svg width="15px" height="11px" viewBox="0 0 15 11" version="1.1" xmlns="http://www.w3.org/2000/svg" xmlns:xlink="http://www.w3.org/1999/xlink">
    <!-- Generator: Sketch 50.2 (55047) - http://www.bohemiancoding.com/sketch -->
    <title>Shuffle</title>
    <desc>Created with Sketch.</desc>
    <defs></defs>
    <g id="Page-1" stroke="none" stroke-width="1" fill="none" fill-rule="evenodd">
        <g id="Spotify" transform="translate(-612.000000, -825.000000)" fill="#B3B3B3">
            <g id="Client" transform="translate(159.000000, 149.000000)">
                <g id="Lower-Bar" transform="translate(0.000000, 656.000000)">
                    <g id="Center-Controls" transform="translate(453.000000, 9.000000)">
                        <g id="Shuffle" transform="translate(0.000000, 11.000000)">
                            <path d="M0.5,2.3284 C1.236,2.3284 1.944,2.5744 2.442,3.0014 L3.466,3.8794 C3.56,3.9604 3.676,4.0004 3.792,4.0004 C3.932,4.0004 4.072,3.9414 4.171,3.8264 C4.351,3.6164 4.327,3.3004 4.117,3.1204 L3.094,2.2434 C2.416,1.6614 1.471,1.3284 0.5,1.3284 C0.224,1.3284 0,1.5524 0,1.8284 C0,2.1044 0.224,2.3284 0.5,2.3284" id="Fill-1"></path>
                            <path d="M11.314,2.3308 L11.296,3.6568 L14.149,1.8668 L11.345,-0.0002 L11.328,1.3298 C10.363,1.3338 9.425,1.6648 8.751,2.2428 L2.442,7.6548 C1.944,8.0828 1.235,8.3288 0.5,8.3288 C0.224,8.3288 0,8.5518 0,8.8288 C0,9.1048 0.224,9.3288 0.5,9.3288 C1.471,9.3288 2.416,8.9948 3.094,8.4138 L9.403,3.0018 C9.894,2.5808 10.589,2.3378 11.314,2.3308" id="Fill-3"></path>
                            <path d="M11.3276,8.3269 C10.5986,8.3229 9.8976,8.0789 9.4026,7.6549 L8.3616,6.7629 C8.1526,6.5829 7.8366,6.6069 7.6566,6.8159 C7.4766,7.0259 7.5006,7.3419 7.7106,7.5209 L8.7516,8.4139 C9.4216,8.9889 10.3546,9.3189 11.3136,9.3259 L11.2966,10.6569 L14.1486,8.8669 L11.3456,6.9999 L11.3276,8.3269 Z" id="Fill-5"></path>
                        </g>
                    </g>
                </g>
            </g>
        </g>
    </g>
</svg>

<svg width="15" height="11" xmlns="http://www.w3.org/2000/svg">
  <g fill="#B3B3B3" fill-rule="evenodd">
    <path d="M.5 2.328c.736 0 1.444.246 1.942.673l1.024.878a.498.498 0 0 0 .705-.053.5.5 0 0 0-.054-.706l-1.023-.877C2.416 1.661 1.471 1.328.5 1.328a.5.5 0 0 0 0 1M11.314 2.33l-.018 1.327 2.853-1.79L11.345 0l-.017 1.33c-.965.004-1.903.335-2.577.913L2.442 7.655c-.498.428-1.207.674-1.942.674a.5.5 0 1 0 0 1c.971 0 1.916-.334 2.594-.915l6.309-5.412c.491-.421 1.186-.664 1.911-.671M11.328 8.327c-.73-.004-1.43-.248-1.925-.672l-1.041-.892a.5.5 0 1 0-.651.758l1.04.893c.67.575 1.604.905 2.563.912l-.017 1.33 2.852-1.79L11.346 7l-.018 1.327z"/>
  </g>
</svg>
